!!!COM: Corelli, Arcangelo
!!!OTL: 
!!!ONM: Opus 5, No. 6
!!!OMV: 2
!!!CDT: 1653/2/17/-1713/1/8/
!!!OCY: Italia
**kern	**kern	**kern
*clefC	*clefG	*clefG
*k[f#c#]	*k[f#c#]	*k[f#c#]
*D:	*D:	*D:
*M4/4	*M4/4	*M4/4
=1	=1	=1
1r	1r	4.a
.	.	8cc#
.	.	8dd
.	.	8dd
.	.	8ee
.	.	8ee
=2	=2	=2
1r	2r	8a
.	.	8aa
.	.	8gg#
.	.	8ff#
.	4.ee	4.ee
.	8ee	8gg#
=3	=3	=3
1r	8ee	8aa
.	8ee	8aa
.	8dd#	8bb
.	8dd#	8bb
.	8ee	8gg#
.	8ee	8gg#
.	8dd#	8ff#
.	8cc#	8ee
=4	=4	=4
2r	8dd	8ff#
.	8dd	8ff#
.	8cc#	8ee
.	8b	8ee
4.AA	8cc#	8ee
.	8a	8cc#
.	8cc#	8aa
8C#	8a	8aa
=5	=5	=5
8D	2r	4aa 4b 4d
8D	.	.
8E	.	4gg# 4e 4b
8E	.	.
8AA	8a	8r
8A	8cc#	8aa
8G#	8b	8aa
8F#	8a	8aa
=6	=6	=6
2E	8b	8aa
.	8ee	8gg#
.	8ee	8ff#
.	8ee	8ee
2B	8ee	8ff#
.	8dd#	8bb
.	8cc#	8bb
.	8b	8bb
=7	=7	=7
2F#	4.cc#	8bb
.	.	16aa
.	.	16gg#
.	.	8aa
.	8cc#	8aa
8BB	8dd#	4aa
8B	8b	.
8c#	[4ee	4gg#
8G#	.	.
=8	=8	=8
8A	4ee]	2ff#
8F#	.	.
8B	4dd#	.
8BB	.	.
4E	2r	4.e
[4e	.	.
.	.	8g#
=9	=9	=9
4e]	2.r	8a
.	.	8a
2d	.	8b
.	.	8b
.	.	8e
.	.	16f#
.	.	16g#
4c#	8a	8r
.	8a	8cc#
=10	=10	=10
4B	8a	8dd
.	8a	8dd
4E	8g#	8ee
.	8g#	8ee
4A	8a	8cc#
.	8cc#	8aa
4r	8b	8aa
.	8a	8aa
=11	=11	=11
4.E	8b	8aa
.	8ee	8gg#
.	8ee	8ff#
8G#	8ee	8ee
8A	2r	4f# 4A 4ee
8A	.	.
8B	.	4dd# 4f# 4B
8B	.	.
=12	=12	=12
4E	4g#	8ee
.	.	16ee
.	.	16ff#
4r	4.r	8gg#
.	.	16ff#
.	.	16ee
4C#	.	8aa
.	16a	8aa
.	16b	.
4r	16cc#	8aa
.	16b	.
.	16cc#	8aa
.	16a	.
=13	=13	=13
4D	4dd	8ff#
.	.	16ff#
.	.	16gg#
4r	4.r	8aa
.	.	16gg#
.	.	16ff#
4D#	.	8bb
.	16b	8bb
.	16cc#	.
4r	16dd#	8bb
.	16cc#	.
.	16dd#	8bb
.	16b	.
=14	=14	=14
4E	4ee	8gg#
.	.	16ee
.	.	16ff#
4r	4.r	8gg#
.	.	16ff#
.	.	16ee
4c#	.	8aa
.	16a	8aa
.	16b	.
4r	16cc#	8aa
.	16b	.
.	16cc#	8aa
.	16a	.
=15	=15	=15
4d	16dd	16ff#
.	16cc#	16ee
.	16dd	16ff#
.	16cc#	16ee
4r	16dd	16ff#
.	16cc#	16ee
.	16b	8r
.	16a	.
4e	4g#	8b
.	.	8b
4C#	4r	8ee
.	.	8e
=16	=16	=16
4D	4f#	8a
.	.	8dd
4E	4g#	8b
.	.	8ee
4AA	4a	8cc#
.	.	8ff#
4BB	4r	8d
.	.	8gg#
=17	=17	=17
4C#	2r	8e
.	.	8aa
4D	.	8f#
.	.	8bb
8E	4g#	4b
8D	.	.
8C#	8r	8r
8AA	8e	8ee
=18	=18	=18
8D	8f#	4dd
8E	8g#	.
8F#	2a	8cc#
8D	.	8b
8E	.	4cc#
8D	.	.
8E	4g#	4b
8EE	.	.
=19	=19	=19
4.A	4a	8cc#
.	.	8ee
.	8r	8aa
8c#	8a	8aa
8d	4d	4aa 4b
8d	.	.
8e	4e	4gg# 4b
8e	.	.
=20	=20	=20
4A	8cc#	4aa
.	8a	.
4r	8cc#	8ee
.	8dd#	8ff#
4.E	4ee	8gg#
.	.	8bb
.	8r	8eee
8G#	8ee	8eee
=21	=21	=21
8A	4a	4eee 4ff#
8A	.	.
8B	4b	4ddd# 4ff#
8B	.	.
8E	2r	8ee
8E	.	8eee
8F#	.	8ddd
8G#	.	16ccc#
.	.	16bb
=22	=22	=22
8A	2r	8ccc#
8AA	.	8aa
8BB	.	8gg
8C#	.	16ff#
.	.	16ee
4D	8ff#	8r
.	8dd	8ff#
4AA	8cc#	8ee
.	16b	16ee
.	16a	16cc#
=23	=23	=23
4E	4g#	8b
.	.	8b
4C#	8r	8ee
.	8e	8ee
4D	4f#	8a
.	.	8dd
4E	4g#	8b
.	.	8ee
=24	=24	=24
4AA	4a	8cc#
.	.	8ee
4A	8r	8aa
.	8cc#	8aa
4E	8b	8aa
.	8b	8gg#
4E#	8b	8gg#
.	8b	8gg#
=25	=25	=25
2F#	8a	8gg#
.	8a	8ff#
.	4a	4cc# 4ff#
2C#	4g#	4ff# 4cc#
.	4g#	4ee# 4cc#
=26	=26	=26
4F#	4a	4cc# 4ff#
4r	4a	4ff# 4cc#
8B	4dd#	8ff#
8BB	.	8bb
8D#	4r	16bb
.	.	16aa
8BB	.	16gg#
.	.	16ff#
=27	=27	=27
4E	8gg#	8r
.	8ee	8gg#
4r	16ee	16gg#
.	16dd	16ff#
.	16cc#	16ee
.	16b	16ee
8A	4cc#	8ee
8AA	.	8aa
8C#	4r	16aa
.	.	16gg
8AA	.	16ff#
.	.	16ee
=28	=28	=28
4.D	8ff#	8r
.	8dd	8ff#
.	16dd	16ff#
.	16cc#	16ee
8D	16b	16ee
.	16a	16cc#
4E	4g#	8b
.	.	8b
4C#	8r	8ee
.	8e	8ee
=29	=29	=29
4D	4f#	8a
.	.	8dd
4E	4g#	8b
.	.	8ee
4AA	4a	8cc#
.	.	8ee
4F#	8r	8aa
.	8a	8aa
=30	=30	=30
4G	4r	8b
.	.	8gg
4A	4cc#	8ee
.	.	8aa
4D	4dd	8ff#
.	.	8ff#
8r	8r	8bb
8D	8dd	8ff#
=31	=31	=31
4E	4dd	8gg#
.	.	8ee
4AA	8r	8aa
.	8cc#	8ee
4D	4dd	8ff#
.	.	8gg#
4AA	16r	8aa
.	16cc#	.
.	16b	8aa
.	16a	.
=32	=32	=32
4E	2e 2b	4aa
4EE	.	4gg#
4AA	2a	2ee 2cc#
4r	.	.
=33	=33	=33
4e	2g#	2b 2ee
4E	.	.
2A	2a	2cc# 2ee
=34	=34	=34
4E	2g#	2ee 2b
4EE	.	.
2AA	2a	2ee 2cc#
=35	=35	=35
4f#	2a#	2ff# 2cc#
4F#	.	.
2B	2f#	2ff# 2dd
=36	=36	=36
4F#	2a#	2cc# 2ff#
4FF#	.	.
2BB	2f#	2dd 2ff#
=37	=37	=37
4c#	2e#	2cc# 2gg#
4C#	.	.
2F#	2f#	2aa 2cc#
=38	=38	=38
4C#	2e#	2gg# 2cc#
4CC#	.	.
2FF#	2f#	2cc# 2aa
=39	=39	=39
4B	2d#	2b 2aa
4BB	.	.
2E	2e	2gg 2b
=40	=40	=40
4A	2e 2A	2cc# 2gg
4AA	.	.
2D	2d	2ff# 2a
=41	=41	=41
4E	2g#	2ee 2b
4EE	.	.
4AA	4a	4ee 4cc#
4A	4a	4ff# 4cc#
=42	=42	=42
4G#	4g#	4ff# 4b
4r	4g#	4ee 4b
4F#	4f#	4a 4ee
4r	4f#	4ff# 4dd
=43	=43	=43
4E	4g#	4ee 4dd
4C#	4a	4ee 4cc#
4D	4a	4b 4ee
4E	4g#	4ee 4b
=44	=44	=44
4AA	4a	4ee 4cc#
4A	4a	4ff# 4cc#
4G#	4g#	4ff# 4b
4r	4g#	4ee
=45	=45	=45
4F#	4f#	4ee 4aa
4r	4f#	4ff# 4dd
4E	4e	4gg# 4dd
4C#	4e	4cc# 4aa
=46	=46	=46
4D	4d	4aa 4b
4E	4e	4gg# 4b
4AA	2r	4.aa
[4A	.	.
.	.	8ccc#
=47	=47	=47
4A]	1r	8ddd
.	.	8ddd
4G#	.	8eee
.	.	8eee
4c#	.	8aa
.	.	8ccc#
4d#	.	8bb
.	.	8aa
=48	=48	=48
4e	4.ee	4.gg#
4G#	.	.
.	8ee	8gg#
4F#	8ee	8aa
.	8ee	8aa
4B	8dd#	8bb
.	8dd#	8bb
=49	=49	=49
2E	8ee	8gg#
.	8ee	8gg#
.	8dd	8ff#
.	8cc#	8ee
2r	8dd	8ff#
.	8dd	8ff#
.	8cc#	8ee
.	8b	8ee
=50	=50	=50
4.AA	8cc#	8ee
.	8a	8cc#
.	8cc#	8aa
8C#	8a	8aa
8D	4d	4aa 4b
8D	.	.
8E	4e	4gg# 4b
8E	.	.
=51	=51	=51
4AA	4.a	4aa
2A	.	2.r
.	8cc#	.
.	8dd	.
.	8dd	.
[4G#	8ee	.
.	8ee	.
=52	=52	=52
4G#]	4.a	4.r
2F#	.	.
.	8f#	8a
.	8g#	8b
.	8g#	8b
[4E	8g#	8cc#
.	8g#	8cc#
=53	=53	=53
4E]	4f#	4.a
2D	2.r	.
.	.	8b
.	.	8g#
.	.	8e
8C#	.	4ee
8AA	.	.
=54	=54	=54
8D	4f#	4a
8E	.	.
8F#	4f#	2dd
8G#	.	.
8A	2e	.
8B	.	.
8c#	.	[4cc#
8A	.	.
=55	=55	=55
8B	2d	4cc#]
8A	.	.
8G#	.	4b
8E	.	.
8A	4c#	4e
8AA	.	.
8C#	4r	4ee
8AA	.	.
=56	=56	=56
8D	4d	4f#
8E	.	.
8F#	4r	4ff#
8D	.	.
4E	4g#	4b
8r	8r	8r
8C#	8cc#	8ee
=57	=57	=57
4D	8f#	8a
.	8g#	8b
4D#	2a	4cc
4E	.	4b
4EE	4g#	4b
=58	=58	=58
1AA	1c#	1a 1e
==	==	==
*-	*-	*-
!!!RWG: This file only contains pitch and duration data.
!!!RWG: Transposing instruments are not transposed.
!!!RWG: Durations of rests and tied notes may be interpreted.
!!!RWG: Key is interpreted using the Humdrum key tool.
!!!SCA: 
!!!YOR: 
!!!AGN: violin
!!!AFT: stage1
!!!ENC: F. Bennion
!!!END: 1997/04/15
!!!AST: baroque
!!!YEC: Copyright 1994, Center for Computer Assisted Research in the Humanities
!!!YEM: Rights to all derivative electronic formats reserved.
!!!YEM: Refer to licensing agreement for further details.
!!!YEN: United States of America
!!!EED: W.B. Hewlett
!!!KEY: 768252408
!!!EMD: Converted from MuseData to Humdrum Aug 9, 1999, by Bret Aarden using muse2kern.
!!!VTS: 1205214815
